!!!COM:	Martini, Johannes
!!!CDT:	~1440///-~1497//
!!!OPR:	Missa Dio te salvi Gotterello
!!!ONM:	2
!!!OTL:	Gloria
!!!AGN:	Mass; Gloria
!!!SCT:	Mar1004b
!!!SCA:	Mar1004b
!!!voices:	4
!!!voices-OPR:	4
**kern	**kern	**kern	**kern
*staff4	*staff3	*staff2	*staff1
*Ivox	*Ivox	*Ivox	*Ivox
*I"Bassus	*I"Tenor	*I"Contra	*I"Superius
*I'B	*I'T	*I'C	*I'S
*>[A,B,C]	*>[A,B,C]	*>[A,B,C]	*>[A,B,C]
*>A	*>A	*>A	*>A
*clefF4	*clefGv2	*clefGv2	*clefG2
*k[]	*k[]	*k[]	*k[]
*M2/1	*M2/1	*M2/1	*M2/1
*met(C)	*met(C)	*met(C)	*met(C)
!!section: Et in terra pax
!!!OMD: Et in terra pax
=1-	=1-	=1-	=1-
2.A\	0r	0r	2.a/
4A\	.	.	4a/
2F\	.	.	2a/
2F\	.	.	2a/
=2	=2	=2	=2
2G\	0r	2.d\	2g/
2G\	.	.	4f/
.	.	4d\	4e/
2D\	.	2d\	2f/
2D\	.	2d\	2f/
=3	=3	=3	=3
2A\	0r	2c\	2e/
4G\	.	2A/	2r
4F\	.	.	.
2E\	.	2B\	2g/
2E\	.	2B\	2g/
=4	=4	=4	=4
2F\	0r	2A/	2a/
2G\	.	2r	4g/
.	.	.	4f/
1A	.	2c\	2e/
.	.	2c\	2e/
=5	=5	=5	=5
1D	0r	2d\	2d/
.	.	4c\	2r
.	.	4B\	.
2r	.	2A/	2f/
2D\	.	2A/	2f/
=6	=6	=6	=6
2.E\	0r	2G/	2g/
.	.	2r	4f/
4F\	.	.	4e/
1G	.	2B\	2.d/
.	.	2B\	.
.	.	.	4c/
=7	=7	=7	=7
1C	0r	2c\	1e
.	.	4B\	.
.	.	4A/	.
1BB	.	1G	1r
=8	=8	=8	=8
0AA	1.A	1A	1e
.	.	2c\	2e/
.	2A/	2c\	2e/
=9	=9	=9	=9
1D	1A	2d\	1f
.	.	2A/	.
2C/	1A	[1c	2e/
2AA/	.	.	[2f/
=10	=10	=10	=10
1C	2G/	1c]	4f/]
.	.	.	4e/
.	2E/	.	1e
1D	1F	2A/	.
.	.	2B\	2d/
=11	=11	=11	=11
1.C	0E	1c	1e
.	.	2c\	[1g
[2E\	.	2B\	.
=12	=12	=12	=12
2E\]	0G	1e	2g/]
4D\	.	.	2a/
4C/	.	.	.
1BB	.	1d	1b
=13	=13	=13	=13
1AA	1A	2e\	1cc
.	.	1f	.
1D	2F/	.	2a/
.	2D/	4e\	4g/
.	.	4d\	4f/
=14	=14	=14	=14
2r	1E	1c	1g
2E\	.	.	.
2F\	1D	1d	1f
2D\	.	.	.
=15	=15	=15	=15
1C	2r	2e\	2g/
.	2G/	2c\	2e/
2GG/	2G/	2B\	2d/
2C/	2G/	2c\	[2e/
=16	=16	=16	=16
2D\	2F/	2A/	2e/]
2GG/	2G/	2B\	1d
1AA	1E	1A	.
.	.	.	2c#i/
=17	=17	=17	=17
2r	1D	1B	0d
2D\	.	.	.
2D\	1r	1A	.
2D\	.	.	.
=18	=18	=18	=18
2C/	0r	2r	0r
2D\	.	2d\	.
2BB/	.	2d\	.
2BB/	.	2d\	.
=19	=19	=19	=19
2AA/	0r	2c\	2r
2r	.	2d\	2dd\
1G	.	2B\	2dd\
.	.	2B\	2dd\
=20	=20	=20	=20
2A\	2r	1A	2cc\
2F\	2d\	.	2a/
1G	2d\	1r	2b\
.	2d\	.	2b\
=21	=21	=21	=21
2A\	2c\	2e\	1a
2F\	2A/	2d\	.
1E	2B\	1e	2r
.	2B\	.	2g/
=22	=22	=22	=22
1AA	1A	2e\	2a/
.	.	2f\	2cc\
2E\	2G/	2g\	2b\
[2F\	2A/	2c\	[2a/
=23	=23	=23	=23
2F\]	2c\	2f\	2a/]
2G\	2B\	2d\	2dd\
2A\	2A/	2f\	2cc\
[2G\	[2d\	[2g\	[2b\
=24	=24	=24	=24
2G\]	2d\]	4g\]	2b\]
.	.	4f\	.
2A\	2c\	4e\	1a
.	.	4d\	.
1E	1B	1e	.
.	.	.	2g#i/
=25	=25	=25	=25
1AA	1A	1c	0a
*	*	*M3/1	*
*	*	*met(3)	*
1r	1r	3%2d	.
.	.	3d\	.
=26	=26	=26	=26
*M3/1	*M3/1	*	*M3/1
*met(3)	*met(3)	*met()	*met(3)
!!primary-mensuration: met(C.)
1A	0.r	1c	0.r
2A\	.	2A/	.
1G	.	1B	.
2E\	.	2B\	.
=27	=27	=27	=27
1.F	0.r	1A	1a
.	.	2d\	2a/
1.E	.	2e\	1g
.	.	2.c\	.
.	.	.	2e/
.	.	4B\	.
=28	=28	=28	=28
1D	1A	1d	1.f
2D\	2A/	2d\	.
1E	1G	1B	1e
2AA/	2E/	2A/	2c/
=29	=29	=29	=29
1D	1F	1A	1d
2AA/	2E/	2A/	2c/
1AA	1.E	1A	[1.e
[2C/	.	[2G/	.
=30	=30	=30	=30
2C/]	1.G	2G/]	2e/]
1BB	.	1D	1d
1AA	1A	1E	1c
2D\	2A/	2r	2d/
=31	=31	=31	=31
2C/	2A/	0.r	2e/
2AA/	2A/	.	2.f/
1C	2G/	.	.
.	.	.	4e/
.	2E/	.	1e
1D	2F/	.	.
.	2F/	.	2d/
=32	=32	=32	=32
1.C	1.E	1G	0.e
.	.	2A/	.
1AA	1.r	1c	.
2BB/	.	2d\	.
=33	=33	=33	=33
*M2/1	*M2/1	*M2/1	*M2/1
*met(C)	*met(C)	*met(C)	*met(C)
2C/	1G	2e\	0r
2GG/	.	2d\	.
2D\	2F/	2f\	.
4C/	2G/	4e\	.
4BB/	.	4d\	.
=34	=34	=34	=34
2AA/	2A/	2c\	1r
2A\	2F/	1d	.
2B\	1E	.	1g
2G\	.	2c\	.
=35	=35	=35	=35
4A\	1D	1d	2f/
4G\	.	.	.
4F\	.	.	2g/
4E\	.	.	.
1D	2r	1r	2a/
.	[2d\	.	2f/
=36	=36	=36	=36
1A	2d\]	1r	1e
.	2c\	.	.
2r	2B\	1f	1d
2D\	2A/	.	.
=37	=37	=37	=37
2C/	1.c	2g\	2r
1F	.	1f	1a
2G\	2B\	2e\	2g/
=38	=38	=38	=38
2D\	1A	2d\	2f/
2C/	.	2.e\	2e/
1E	1G	.	2.g/
.	.	4d\	.
.	.	2B\	.
.	.	.	4f/
=39	=39	=39	=39
2AA/	2A/	2c\	4e/
.	.	.	4d/
2D\	2F/	1A	1d
1AA	1E	.	.
.	.	2A/	2c#i/
=40	=40	=40	=40
1r	0D	3A/V	1d
.	.	3B\	.
.	.	3c\Z	.
1D	.	3d\V	1f
.	.	3A/	.
.	.	3B\Z	.
=41	=41	=41	=41
1E	1C	3%2cV	2e/
.	.	.	1g
.	.	3c\Z	.
2.F\	1D	3%2AV	.
.	.	.	2f/
.	.	3F/Z	.
4E\	.	.	.
=42	=42	=42	=42
2C/	2E/	3G/V	2e/
.	.	3A/	.
2D\	2F/	.	4d/
.	.	[3B-i\Z	.
.	.	.	4c/
1BB	2.D/	6B-\]V	1d
.	.	6A/	.
.	.	3F/	.
.	.	3G/Z	.
.	4C/	.	.
=43	=43	=43	=43
0AAl	0El	0Al	0cl
!!LO:LB:i:g=z
=44||	=44||	=44||	=44||
*>B	*>B	*>B	*>B
*clefF4	*clefGv2	*clefGv2	*clefG2
*k[]	*k[]	*k[]	*k[]
*M2/1	*M2/1	*M2/1	*M2/1
*met(C)	*met(C)	*met(C)	*met(C)
!!section: Domine Deus
!!!OMD: Domine Deus
0r	0r	2d\	0r
.	.	2c\	.
.	.	2d\	.
.	.	4c\	.
.	.	4B\	.
=45	=45	=45	=45
2D\	0r	2A/	0r
2C/	.	2r	.
4D\	.	2A/	.
2D\	.	.	.
.	.	[2c\	.
8C/L	.	.	.
8BB/J	.	.	.
=46	=46	=46	=46
2AA/	0r	4c\]	0r
.	.	4B\	.
4BB/	.	2G/	.
4C/	.	.	.
1D	.	2F/	.
.	.	[2B-i\	.
=47	=47	=47	=47
2C/	0r	2B-\]	0r
2AA/	.	1A	.
1BB-i	.	.	.
.	.	2G/	.
=48	=48	=48	=48
2AA/	0r	2A/	2a/
2BB/	.	2d\	2g/
2AA/	.	2c\	2a/
[2C/	.	[2e\	4g/
.	.	.	4f/
=49	=49	=49	=49
4C/]	2A/	4e\]	1e
4D\	.	4d\	.
2E\	2G/	2c\	.
1D	4A/	1d	2f/
.	2A/	.	.
.	.	.	2f/
.	8G/L	.	.
.	8F/J	.	.
=50	=50	=50	=50
1C	1E	2e\	2g/
.	.	2e\	4f/
.	.	.	4e/
2D\	2F/	2.A/	1d
2F\	2F/	.	.
.	.	4B\	.
=51	=51	=51	=51
2E\	2G/	2c\	2r
2D\	4F/	2.d\	1a
.	4E/	.	.
1F	1D	.	.
.	.	4e\	.
.	.	[2f\	2b-i\
=52	=52	=52	=52
2.D\	2r	4f\]	2a/
.	.	4e\	.
.	1A	2d\	4g/
4BB/	.	.	4f/
2C/	.	2c\	2e/
2GG/	2B\	[2d\	2d/
=53	=53	=53	=53
1D	2A/	4d\]	1f
.	.	4A/	.
.	4G/	2d\	.
.	4F/	.	.
1r	2E/	2c\	2g/
.	2D/	2d\	[2f/
=54	=54	=54	=54
1D	1F	0A	4f/]
.	.	.	4e/
.	.	.	1d
1AA	1E	.	.
.	.	.	2c#i/
=55	=55	=55	=55
0Al	0Dl	0Al	0dl
!!LO:LB:i:g=z
=56||	=56||	=56||	=56||
*>C	*>C	*>C	*>C
*clefF4	*clefGv2	*clefGv2	*clefG2
*k[]	*k[]	*k[]	*k[]
*M2/1	*M2/1	*M2/1	*M2/1
*met(C|)	*met(C|)	*met(C|)	*met(C|)
!!section: Qui tollis
!!!OMD: Qui tollis
0AA	[0A	0c	0e
=57	=57	=57	=57
1AA	1A]	1c	1e
1AA	1A	1c	1e
=58	=58	=58	=58
0D	0A	0d	0f
=59	=59	=59	=59
1C	0A	[0e	1e
[1AA	.	.	[1c
=60	=60	=60	=60
1AA]	0A	1e]	1c]
1D	.	1d	[1f
=61	=61	=61	=61
1E	1G	1B	2f/]
.	.	.	2e/
1C	1E	1c	[1e
=62	=62	=62	=62
0D	0F	0A	2e/]
.	.	.	4d/
.	.	.	4c/
.	.	.	1d
=63	=63	=63	=63
1AA	0E	1A	0e
1r	.	1G	.
=64	=64	=64	=64
2.GG/	1.G	0r	0r
4AA/	.	.	.
2BB/	.	.	.
2C/	2A/	.	.
=65	=65	=65	=65
2D\	1B	0r	0r
2E\	.	.	.
2F\	[1A	.	.
[2D\	.	.	.
=66	=66	=66	=66
4D\]	2A/]	0r	0r
4C/	.	.	.
2BB/	2G/	.	.
2AA/	1F	.	.
2D\	.	.	.
=67	=67	=67	=67
2E\	0E	2.G/	1.g
2F\	.	.	.
.	.	4A/	.
1G	.	2B\	.
.	.	2c\	2a/
=68	=68	=68	=68
0F	0D	2d\	1b
.	.	2e\	.
.	.	2f\	[1a
.	.	[2d\	.
=69	=69	=69	=69
0D	0r	4d\]	2a/]
.	.	4c\	.
.	.	2B\	2g/
.	.	2A/	1f
.	.	[2d\	.
=70	=70	=70	=70
0AA	0r	2d\]	0e
.	.	4c#i\	.
.	.	4B\	.
.	.	1c#i	.
=71	=71	=71	=71
0F	0D	2d\	0d
.	.	1f	.
.	.	4e\	.
.	.	4d\	.
=72	=72	=72	=72
1G	1E	1c	1r
1F	1D	[1d	1a
=73	=73	=73	=73
1D	1F	1d]	1a
1E	1G	1B	1g
=74	=74	=74	=74
0AA	0A	0c	1e
.	.	.	[1f
=75	=75	=75	=75
0D	1D	1A	1f]
.	1F	1B-i	[1d
=76	=76	=76	=76
0AA	0E	1A	1d]
.	.	[1A	1c#i
=77	=77	=77	=77
1D	[0D	2A/]	0d
.	.	2F/	.
2D\	.	2.F/	.
[2F\	.	.	.
.	.	4G/	.
=78	=78	=78	=78
2F\]	0D]	1A	1r
2F\	.	.	.
[1D	.	2A/	1d
.	.	[2B-i\	.
=79	=79	=79	=79
2D\]	0r	2B-\]	2d/
2C/	.	1A	1d
1BB-i	.	.	.
.	.	2G/	2d/
=80	=80	=80	=80
0AA	0r	2A/	1c
.	.	2E/	.
.	.	2F/	1A
.	.	4E/	.
.	.	4F/	.
=81	=81	=81	=81
1GG	1r	1G	1B
2GG/	[1d	2D/	2B/
[2D\	.	[2F/	[2A/
=82	=82	=82	=82
4D\]	1d]	4F/]	2A/]
4C/	.	4E/	.
4BB/	.	4D/	4G/
4AA/	.	4C/	4F/
1BB	1d	1D	1G
=83	=83	=83	=83
2AA/	1c	1.E	0A
1C	.	.	.
.	1A	.	.
4BB/	.	2F/	.
4AA/	.	.	.
=84	=84	=84	=84
2GG/	1B	4G/	0r
.	.	4A/	.
1D	.	4B\	.
.	.	4c\	.
.	2B\	2d\	.
2C/	[2A/	2e\	.
=85	=85	=85	=85
2D\	2A/]	2f\	1a
2F\	4G/	4e\	.
.	4F/	4f\	.
1E	1G	2g\	1b
.	.	[2e\	.
=86	=86	=86	=86
2.AA/	1A	2e\]	1.cc
.	.	2c\	.
4BB/	.	.	.
2C/	1r	2e\	.
2D\	.	2f\	[2a/
=87	=87	=87	=87
1E	1c	1e	2a/]
.	.	.	2g/
1D	1d	1A	1f
=88	=88	=88	=88
1A	1c	2r	1e
.	.	2A/	.
1F	1A	2c\	[1a
.	.	2d\	.
=89	=89	=89	=89
0E	0B	2e\	2a/]
.	.	2.g\	4g/
.	.	.	4f/
.	.	.	1g
.	.	4f\	.
.	.	4e\	.
.	.	4d\	.
=90	=90	=90	=90
1AA	0A	1e	[0a
[1D	.	2d\	.
.	.	[2d\	.
=91	=91	=91	=91
1D]	0r	2d\]	0a]
.	.	4c\	.
.	.	4B\	.
1A	.	1c	.
=92	=92	=92	=92
2G\	0r	2B\	0r
1G	.	1e	.
4F\	.	4d\	.
4E\	.	4c\	.
=93	=93	=93	=93
1F	0r	1d	1a
1E	.	1e	2g/
.	.	.	[2g/
=94	=94	=94	=94
2r	0r	2c\	2g/]
1D	.	2d\	4f/
.	.	.	4e/
.	.	2A/	1f
4C/	.	[2c\	.
4BB/	.	.	.
=95	=95	=95	=95
1C	0r	4c\]	1e
.	.	4B\	.
.	.	2.G/	.
1BB	.	.	2d/
.	.	4A/	.
.	.	[2B\	[2d/
=96	=96	=96	=96
1GG	0r	2B\]	2d/]
.	.	4A/	4c/
.	.	4G/	4B/
1AA	.	1F#i	1c
=97	=97	=97	=97
1GG	0r	2G/	1B
.	.	2d\	.
2.AA/	.	2c\	2A/
.	.	[2e\	[2c/
4BB/	.	.	.
=98	=98	=98	=98
2C/	0r	2e\]	2c/]
2D\	.	4d\	4B/
.	.	4c\	4A/
1E	.	1B	1G#i
=99	=99	=99	=99
[0AA	[0A	2A/	1A
.	.	1c	.
.	.	.	2r
.	.	2c\	[2c/
=100	=100	=100	=100
0AA_	0A_	1e	2c/]
.	.	.	2c/
.	.	2r	1e
.	.	2A/	.
=101	=101	=101	=101
0AA_	0A_	2c\	2r
.	.	2d\	2A/
.	.	1e	2c/
.	.	.	2d/
=102	=102	=102	=102
0AA]	0A_	1A	1e
.	.	1e	1A
=103	=103	=103	=103
0D	0A]	0f	1a
.	.	.	2g/
.	.	.	[2f/
=104	=104	=104	=104
1E	1G	0e	2f/]
.	.	.	2g/
1AA	1A	.	[1e
=105	=105	=105	=105
0D	0F	1r	2e/]
.	.	.	4d/
.	.	.	4c/
.	.	1A	1d
=106	=106	=106	=106
1C	0E	1c	0e
1G	.	1B	.
=107	=107	=107	=107
2G\	0r	2B\	0r
1A	.	1c	.
4G\	.	2d\	.
4F\	.	.	.
=108	=108	=108	=108
1E	0r	2e\	1g
.	.	4d\	.
.	.	4c\	.
2E\	.	2B\	2g/
[2F\	.	[2A/	[2a/
=109	=109	=109	=109
2F\]	0r	2A/]	2a/]
2G\	.	1d	4g/
.	.	.	4f/
1A	.	.	1e
.	.	2c#i\	.
=110	=110	=110	=110
1D	1r	1d	1d
1E	1G	1B	[1g
=111	=111	=111	=111
1C	0G	1c	2g/]
.	.	.	2f/
1BB	.	1d	1d
=112	=112	=112	=112
1.AA	0A	1e	1c
.	.	2.A/	[1e
[2C/	.	.	.
.	.	4B\	.
=113	=113	=113	=113
2C/]	1G	2c\	2e/]
2BB/	.	2d\	2d/
1D	1F	1A	[1d
=114	=114	=114	=114
0AA	0E	1r	1d]
.	.	1A	1c#i
=115	=115	=115	=115
1A	[0D	1.F	0d
[1F	.	.	.
.	.	[2A/	.
=116	=116	=116	=116
2F\]	0D]	1A]	0r
1.A	.	.	.
.	.	1D	.
=117	=117	=117	=117
*M3/1	*M3/1	*M3/1	*M3/1
*met(3)	*met(3)	*met(3)	*met(3)
!! This is in the real Men3 tempo.
0D	0.r	0A	0.r
1D	.	1B	.
=118	=118	=118	=118
0C	0.r	1A	0.r
.	.	1.c	.
1C	.	.	.
.	.	2B\	.
=119	=119	=119	=119
1.D	0d	1.A	0f
2C/	.	2F/	.
1BB	1d	1G	1d
=120	=120	=120	=120
0.AA	0c	[0.A	0e
.	1c	.	1e
=121	=121	=121	=121
0.D	1.d	0A]	1.f
.	2c\	.	2e/
.	1B	1r	1d
=122	=122	=122	=122
0F	0.A	1A	0c
.	.	1c	.
1D	.	1d	1r
=123	=123	=123	=123
0D	0.r	1.f	0a
.	.	2e\	.
[1F	.	1c	[1a
=124	=124	=124	=124
1F]	0.r	0d	1a]
0E	.	.	0g
.	.	1c#i	.
=125	=125	=125	=125
0D	0A	0d	0f
1C	1A	1e	1r
=126	=126	=126	=126
0AA	0c	0e	0a
1D	1d	[1f	1f
=127	=127	=127	=127
1F	1c	1f]	1a
1G	1B	1d	1.g
1E	1c	1e	.
.	.	.	2f/
=128	=128	=128	=128
1F	1A	0c	0f
0C	0G	.	.
.	.	1c	1e
=129	=129	=129	=129
0D	0.F	0A	0f
1D	.	1d	1r
=130	=130	=130	=130
0E	0.r	1c	1.g
.	.	2B\	.
.	.	2A/	2a/
1G	.	1G	1b
=131	=131	=131	=131
1F	0.r	1.c	1.a
0D	.	.	.
.	.	2A/	2g/
.	.	1B	1f
=132	=132	=132	=132
0C	1.G	0c	0e
.	2A/	.	.
1GG	1B	1d	1d
=133	=133	=133	=133
0.D	1.A	1.d	1.f
.	2G/	2c\	2e/
.	1F	1A	1f
=134	=134	=134	=134
0C	0E	0c	0g
1D	1F	[1A	1f
=135	=135	=135	=135
1AA	0A	1A]	1e
0BB	.	0D	0d
.	1G#i	.	.
=136	=136	=136	=136
0.AA	[0.A	0.E	1.c
.	.	.	2d/
.	.	.	1e
=137	=137	=137	=137
0D	0.A]	0.r	0f
1C	.	.	1e
=138	=138	=138	=138
1D	0F	0A	0a
1F	.	.	.
1E	1G	1B	1g
=139	=139	=139	=139
1AA	1A	1.c	1f
1.C	1.G	.	1.e
.	.	2B\	.
.	.	1A	.
2D\	2F/	.	2d/
=140	=140	=140	=140
1BB	1D	1G	0d
0AA	0E	0A	.
.	.	.	1c#i
=141	=141	=141	=141
0.Dl	0.Dl	0.Al	0.dl
==	==	==	==
*-	*-	*-	*-
!!!RDF**kern: l=long note in original notation
!!!RDF**kern: i=editorial accidental
!!!RDF**kern: V=start of tuplet marker
!!!RDF**kern: Z=end of tuplet marker
!!!ENC:	Chris Gage 01-22-2014
!!!END:	2015/03/07/
!!!EED:	Jesse Rodin
!!!EEV:	2015/03/09/
!!!ONB:	Translated from MusicXML and edited on 2015/03/09/ by Craig Sapp
!!muse2ps: T^@{OPR}^u^@{ONM}{. }@{OTL}^C^@{COM}^i2I150v85,85,85,150Q16
